X: 35636
T: Sailing Into Walpole's Marsh
R: reel
M: 4/4
K: Adorian
|:dB|A2AG ABcA|GEE2 GED2|EAAG ABcd|edgd ABdB|
AGG2 AGG2|GEDE GED2|A2AG ABcd|eBdB A2:|
|:cd|egg2 eaa2|gedB cAA2|egg2 eaa2|age^c d2ef|
g2ge a2af|gedB cAAB|c2gc acgc|eage d2:|

